X: 1
T: David's
R: jig
M: 6/8
L: 1/8
K: Gdor
G2 D GAB|AFD G2 B|AFF dFF|cBA Acf|
G2 D GAB|AFD G2 g|gfd cdf|cdf cAF|
G2 D GAB|AFD G2 B|AFF dFc|FBF Acf|
G2 D GAB|AFD G2 g|gfd cdf|cdf cdf|
|:g2 d gab|afd g2 a|fcc acc|gcc fga|
[1g2 d gab|afd g2 a|fgf cdf|cAF G2 a:|
[2gag gfc|dff fcA|Bdd dBG|Acc cAF||


Tune 2746	Setting 15979

